X:3889
T:Danza Prima
T:Por aquel camino verde (Lleón)
R:Danza Prima
C:Tradicional
S:Música Tradicional Asturiana, (C) Tello & Tito. Asturies, 2001.
S:http://pagina.de/MusTradAst <telloytito@asturies.org>
A:Asturies
Z:Curdión
M:3/8
L:1/8
Q:1/4=100
K:C
|: G2 G|E2 F|G2 G|F2 F|F2 E|D2 E|F2 G|E2 D|[1 E3-|E3 :|[2 C3-|C3||
|: E2 E|C2 C|B,2 C|D2 D|AAA|G2 G|F2 F|[1 E3 :|[2 A2 A||G2 G|F2 F|E3-|E3|


